aloe_vera/img/advantages_6.svg

<svg width="65" height="65" viewBox="0 0 65 65" fill="none" xmlns="http://www.w3.org/2000/svg">
<g clip-path="url(#clip0)">
<path d="M25.3475 10.7569C25.3475 16.6974 20.5311 21.5125 14.5906 21.5125C8.65139 21.5125 3.83502 16.6974 3.83502 10.7569C3.83502 4.81638 8.65139 0.00128174 14.5906 0.00128174C20.5311 0.00128174 25.3475 4.81638 25.3475 10.7569Z" fill="#EBE9EB"/>
<path d="M25.3474 10.7569C25.3474 16.6974 20.5311 21.5125 14.5906 21.5125V0.00128174C20.5311 0.00128174 25.3474 4.81638 25.3474 10.7569Z" fill="#D8D2D7"/>
<path d="M26.6564 12.0314V25.0403H2.52612V12.0314C2.52612 11.3279 3.0971 10.7569 3.80063 10.7569H25.3819C26.0854 10.7569 26.6564 11.3279 26.6564 12.0314Z" fill="#685E68"/>
<path d="M26.6564 12.0314V25.0403H14.5906V10.7569H25.3818C26.0854 10.7569 26.6564 11.3279 26.6564 12.0314Z" fill="#554E56"/>
<path d="M29.1825 33.8179L24.3597 42.6031L29.1825 50.8785V62.2917C29.1825 63.7867 27.9704 64.9988 26.4754 64.9988H2.70706C1.21206 64.9988 0 63.7867 0 62.2917V50.8785L4.82275 42.6031L0 33.8179V22.1714C0 20.8051 1.10755 19.6989 2.47255 19.6989H26.7086C28.0749 19.6989 29.1825 20.8051 29.1825 22.1714V33.8179Z" fill="#FDBF00"/>
<path d="M29.1824 33.8179L24.3597 42.6031L29.1824 50.8785V62.2917C29.1824 63.7867 27.9704 64.9988 26.4754 64.9988H14.5906V19.6989H26.7086C28.0749 19.6989 29.1824 20.8051 29.1824 22.1714V33.8179Z" fill="#FF9F00"/>
<path d="M0 33.8179H29.1825V50.8785H0V33.8179Z" fill="#685E68"/>
<path d="M14.5906 33.8179H29.1824V50.8785H14.5906V33.8179Z" fill="#554E56"/>
<path d="M21.6298 42.3482C21.6298 43.4047 20.7733 44.2599 19.718 44.2599H9.46456C8.40799 44.2599 7.5528 43.4047 7.5528 42.3482C7.5528 41.2929 8.40799 40.4364 9.46456 40.4364H19.718C20.7733 40.4364 21.6298 41.2929 21.6298 42.3482Z" fill="#EBE9EB"/>
<path d="M65 51.5074V63.7242C65 64.4281 64.4294 64.9987 63.7255 64.9987H39.4486C38.7447 64.9987 38.1741 64.4281 38.1741 63.7242V51.5074C38.1741 47.1278 41.7245 43.5774 46.1041 43.5774H57.07C61.4496 43.5774 65 47.1278 65 51.5074Z" fill="#FDBF00"/>
<path d="M21.6297 42.3482C21.6297 43.4047 20.7732 44.2599 19.7179 44.2599H14.5906V40.4364H19.7179C20.7732 40.4364 21.6297 41.2929 21.6297 42.3482Z" fill="#D8D2D7"/>
<path d="M65 51.5074V63.7242C65 64.4281 64.4294 64.9987 63.7255 64.9987H51.5871V43.5774H57.07C61.4496 43.5774 65 47.1278 65 51.5074Z" fill="#FF9F00"/>
</g>
<defs>
<clipPath id="clip0">
<rect width="65" height="65" fill="white"/>
</clipPath>
</defs>
</svg>

<svg width="65" height="65" fill="none" xmlns="http://www.w3.org/2000/svg"><g clip-path="url(#clip0)"><path d="M25.348 10.757c0 5.94-4.817 10.755-10.757 10.755-5.94 0-10.756-4.815-10.756-10.755S8.651 0 14.591 0s10.757 4.815 10.757 10.756z" fill="#EBE9EB"/><path d="M25.347 10.757c0 5.94-4.816 10.755-10.756 10.755V.002c5.94 0 10.756 4.814 10.756 10.755z" fill="#D8D2D7"/><path d="M26.656 12.031v13.01H2.526V12.03c0-.703.571-1.274 1.275-1.274h21.58c.704 0 1.275.57 1.275 1.274z" fill="#685E68"/><path d="M26.656 12.031v13.01H14.591V10.756h10.79c.704 0 1.275.57 1.275 1.274z" fill="#554E56"/><path d="M29.183 33.818l-4.823 8.785 4.823 8.276v11.413a2.707 2.707 0 01-2.708 2.707H2.707A2.707 2.707 0 010 62.292V50.879l4.823-8.276L0 33.818V22.17a2.472 2.472 0 012.473-2.47h24.236a2.473 2.473 0 012.474 2.472v11.647z" fill="#FDBF00"/><path d="M29.182 33.818l-4.822 8.785 4.822 8.276v11.413a2.707 2.707 0 01-2.707 2.707H14.591v-45.3h12.118a2.473 2.473 0 012.473 2.472v11.647z" fill="#FF9F00"/><path d="M0 33.818h29.183v17.06H0v-17.06z" fill="#685E68"/><path d="M14.59 33.818h14.592v17.06H14.591v-17.06z" fill="#554E56"/><path d="M21.63 42.348a1.912 1.912 0 01-1.912 1.912H9.465a1.91 1.91 0 110-3.824h10.253c1.055 0 1.912.857 1.912 1.912z" fill="#EBE9EB"/><path d="M65 51.507v12.217c0 .704-.57 1.275-1.275 1.275H39.45c-.704 0-1.275-.57-1.275-1.275V51.507a7.93 7.93 0 017.93-7.93H57.07a7.93 7.93 0 017.93 7.93z" fill="#FDBF00"/><path d="M21.63 42.348a1.912 1.912 0 01-1.912 1.912H14.59v-3.824h5.127c1.055 0 1.912.857 1.912 1.912z" fill="#D8D2D7"/><path d="M65 51.507v12.217c0 .704-.57 1.275-1.275 1.275H51.587V43.577h5.483a7.93 7.93 0 017.93 7.93z" fill="#FF9F00"/></g><defs><clipPath id="clip0"><path fill="#fff" d="M0 0h65v65H0z"/></clipPath></defs></svg>
